.local/share/icons/Gruvbox-Plus-Dark/panel/24/cisco-tray-quarantined.svg

<svg xmlns="http://www.w3.org/2000/svg" width="24" height="24" version="1.1">
 <defs>
  <style id="current-color-scheme" type="text/css">
   .ColorScheme-Text { color:#ebdbb2; } .ColorScheme-Highlight { color:#458588; }
  </style>
 </defs>
 <path style="fill:currentColor" class="ColorScheme-Text" d="M 12,4 C 9.009725,4 6.4180719,5.6269634 5.0449219,8.0449219 6.2107109,7.3828743 7.558275,7 9,7 c 0.524759,0 1.037157,0.052885 1.533203,0.1484375 0.0018,-0.00466 0.0041,-0.00902 0.0059,-0.013672 0.109049,-0.2835808 0.233686,-0.5574434 0.373047,-0.8242187 0.0129,-0.024874 0.02592,-0.049498 0.03906,-0.074219 0.127806,-0.238484 0.267456,-0.4682357 0.417969,-0.6914062 0.02988,-0.044688 0.05714,-0.090725 0.08789,-0.1347657 0.151973,-0.215866 0.314284,-0.4236254 0.486328,-0.6230468 0.02804,-0.032693 0.05347,-0.067383 0.08203,-0.099609 0.204505,-0.229514 0.419108,-0.4495693 0.648438,-0.654297 C 12.45122,4.0147621 12.227527,4 12,4 Z m 3.226562,0.6777344 c -0.289386,0.1504875 -0.560133,0.3292648 -0.818359,0.5234375 -0.06417,0.047973 -0.123414,0.1018974 -0.185547,0.1523437 -0.214183,0.1751328 -0.419783,0.3614803 -0.607422,0.5644532 -0.02986,0.032021 -0.06068,0.06303 -0.08984,0.095703 -0.457517,0.5172888 -0.829449,1.1116662 -1.089844,1.765625 1.846254,0.8763402 3.283592,2.4434572 4.019531,4.3632812 0.344008,-0.08149 0.692941,-0.136719 1.044922,-0.136719 0.855336,0 1.709715,0.243764 2.451172,0.72461 C 19.973506,12.488694 20,12.248001 20,12 20,8.7183319 18.041258,5.9142825 15.226562,4.6777344 Z M 9,9 C 6.920529,9 5.0933101,10.046465 4.0175781,11.644531 4.0123781,11.76324 4,11.87997 4,12 c 0,4.432 3.568,8 8,8 0.119372,0 0.235451,-0.01245 0.353516,-0.01758 l 0.002,0 c 0.488328,-0.328717 0.924296,-0.728647 1.294922,-1.183594 -0.464227,-0.781436 -0.67047,-1.669836 -0.621094,-2.552734 -0.100444,-0.07885 -0.208588,-0.148249 -0.304688,-0.232422 -0.0031,-0.0027 -0.0066,-0.0051 -0.0098,-0.0078 -0.261357,-0.229614 -0.505115,-0.478562 -0.734375,-0.740234 -0.03115,-0.0355 -0.06127,-0.07137 -0.0918,-0.107422 -0.209976,-0.248385 -0.407211,-0.506126 -0.585938,-0.779297 -0.01292,-0.01971 -0.02632,-0.03876 -0.03906,-0.05859 -0.181167,-0.282328 -0.341251,-0.57938 -0.486328,-0.884765 -0.02795,-0.05873 -0.05353,-0.118215 -0.08008,-0.177735 -0.131227,-0.294674 -0.250319,-0.595729 -0.345703,-0.908203 -0.0065,-0.02114 -0.01519,-0.04128 -0.02148,-0.0625 -0.09544,-0.322294 -0.164079,-0.655937 -0.21875,-0.99414 -0.01282,-0.07917 -0.02467,-0.158327 -0.03516,-0.238281 C 10.030892,10.709012 10,10.358483 10,10 10,9.694348 10.01754,9.394017 10.05078,9.097656 9.7092773,9.037718 9.359197,9 9,9 Z m 3.013672,0.8125 C 12.011672,9.87577 12,9.936238 12,10 c 0,0.248781 0.01965,0.491853 0.04883,0.732422 0.0089,0.07358 0.02169,0.146032 0.0332,0.21875 0.02793,0.17572 0.0627,0.349374 0.105469,0.519531 0.01772,0.07068 0.0345,0.141289 0.05469,0.210938 0.0659,0.226739 0.141381,0.449467 0.232421,0.664062 0.0966,0.2277 0.209115,0.446117 0.332032,0.658203 0.01642,0.02842 0.03391,0.05587 0.05078,0.08399 0.115562,0.192026 0.241224,0.377564 0.376953,0.554687 0.01328,0.01738 0.02559,0.03551 0.03906,0.05273 0.125356,0.159929 0.263856,0.308901 0.404296,0.455079 0.180426,-0.294869 0.386146,-0.577552 0.640625,-0.832032 0.1063,-0.106299 0.227755,-0.185898 0.341797,-0.279297 C 14.187373,11.671935 13.24601,10.527544 12.013672,9.8125 Z M 17.449219,13 a 3.5,3.5 0 0 0 -2.423828,1.025391 3.5,3.5 0 0 0 0,4.949218 3.5,3.5 0 0 0 4.949218,0 3.5,3.5 0 0 0 0,-4.949218 A 3.5,3.5 0 0 0 17.449219,13 Z m 0.0918,1 a 2.5,2.5 0 0 1 1.726562,0.732422 2.5,2.5 0 0 1 0.314453,3.142578 l -3.46094,-3.460938 A 2.5,2.5 0 0 1 17.541016,14 Z m -2.123047,1.125 3.460937,3.460938 A 2.5,2.5 0 0 1 15.732422,18.267578 2.5,2.5 0 0 1 15.417969,15.125 Z"/>
</svg>

<svg width="24" height="24" version="1.1" xmlns="http://www.w3.org/2000/svg">
  <defs>
    <style id="current-color-scheme" type="text/css">.ColorScheme-Text { color:#ebdbb2; } .ColorScheme-Highlight { color:#458588; } .ColorScheme-NeutralText { color:#fe8019; } .ColorScheme-PositiveText { color:#689d6a; } .ColorScheme-NegativeText { color:#fb4934; }</style>
  </defs>
  <path class="ColorScheme-Text" d="m17.45 13.01c-0.9106 0.0133-1.78 0.381-2.424 1.025-1.366 1.367-1.366 3.582 0 4.949 1.367 1.366 3.582 1.366 4.949 0 1.366-1.367 1.366-3.582 0-4.949-0.6686-0.6688-1.579-1.038-2.525-1.025zm0.0918 1c0.6489 0.01072 1.268 0.2734 1.727 0.7324 0.8372 0.8404 0.9686 2.153 0.3145 3.143l-3.461-3.461c0.4207-0.2781 0.9157-0.4225 1.42-0.4141zm-2.123 1.125 3.461 3.461c-0.9911 0.6548-2.306 0.5217-3.146-0.3184-0.8372-0.8404-0.9686-2.153-0.3145-3.143zm-3.42-11.15c-2.99 0-5.582 1.627-6.955 4.045 1.166-0.662 2.513-1.045 3.955-1.045 0.9772 0 1.532 0.1424 1.539 0.1348 0.52-1.353 1.371-2.42 2.135-3.102-0.2226-0.01844-0.4463-0.0332-0.6738-0.0332zm3.227 0.6777c-0.5409 0.2813-2.034 1.201-2.791 3.102 1.845 0.8759 3.297 2.433 4.033 4.352 0.3375-0.08331 0.6836-0.1272 1.031-0.1309 0.8742 5.47e-4 1.729 0.2557 2.461 0.7344 0.02234-0.2419 0.03906-0.4862 0.03906-0.7344 0-3.282-1.959-6.086-4.773-7.322zm-6.227 4.322c-2.079 0-3.907 1.046-4.982 2.645-0.0052 0.1187-0.01758 0.2354-0.01758 0.3555 0 4.432 3.568 8 8 8 0.1194 0 0.2354-0.01245 0.3535-0.01758h2e-3c0.4857-0.3269 0.9198-0.7239 1.289-1.176-0.4193-0.6965-0.642-1.494-0.6446-2.307 0.0033-0.08674 0.0092-0.1734 0.01758-0.2598-1.882-1.518-3.315-4.037-2.967-7.143-0.3415-0.05994-0.6914-0.09766-1.051-0.09766zm3.014 0.8125c-0.0445 1.408 0.4279 3.063 1.654 4.34 0.2633-0.4288 0.5967-0.8104 0.9863-1.129-0.3638-1.084-1.111-2.323-2.641-3.211z" fill="currentColor"/>
</svg>
